icons/baby_female_0609m.svg

<svg width="48" height="48" viewBox="0 0 48 48" fill="none" xmlns="http://www.w3.org/2000/svg">
<path fill-rule="evenodd" clip-rule="evenodd" d="M12 15.9C14.2822 15.4367 16 13.419 16 11C16 8.23858 13.7614 6 11 6C8.23858 6 6 8.23858 6 11C6 13.419 7.71776 15.4367 10 15.9V18L8 18C7.44771 18 7 18.4477 7 19C7 19.5523 7.44772 20 8 20L10 20V23C10 23.5523 10.4477 24 11 24C11.5523 24 12 23.5523 12 23V20L14 20C14.5523 20 15 19.5523 15 19C15 18.4477 14.5523 18 14 18H12V15.9ZM14 11C14 12.6569 12.6569 14 11 14C9.34315 14 8 12.6569 8 11C8 9.34315 9.34315 8 11 8C12.6569 8 14 9.34315 14 11Z" fill="black"/>
<path fill-rule="evenodd" clip-rule="evenodd" d="M30 17C33.0376 17 35.5 14.5376 35.5 11.5C35.5 8.46243 33.0376 6 30 6C26.9624 6 24.5 8.46243 24.5 11.5C24.5 14.5376 26.9624 17 30 17ZM30 15C31.933 15 33.5 13.433 33.5 11.5C33.5 9.567 31.933 8 30 8C28.067 8 26.5 9.567 26.5 11.5C26.5 13.433 28.067 15 30 15Z" fill="black"/>
<path fill-rule="evenodd" clip-rule="evenodd" d="M24.0329 29.3328C24.011 29.1937 24.0001 29.062 24.0001 28.9404V23.7748C22.8059 23.5416 21.5636 23.2485 20.2405 22.9023C18.6377 22.4829 17.6783 20.8434 18.0977 19.2406C18.5172 17.6377 20.1566 16.6783 21.7595 17.0977C25.1619 17.9881 27.629 18.4044 30.0125 18.4144C32.3862 18.4245 34.8409 18.0319 38.2049 17.1073C39.8025 16.6682 41.4536 17.6073 41.8927 19.2049C42.3318 20.8026 41.3927 22.4536 39.7951 22.8927C38.8978 23.1394 38.0383 23.3573 37.2062 23.5455C36.798 23.6379 36.3962 23.7232 36.0001 23.8011V28.9404L36 28.9562V29C35.997 29.1047 35.9856 29.2162 35.9672 29.3329C37.8205 30.9235 39 33.2524 39 35.8567C39 36.7438 38.7876 38.1709 38.2383 39.4104C37.7062 40.6112 36.6755 41.9996 34.8889 41.9996C33.1439 41.9996 31.6667 40.6265 31.6667 38.8568C31.6667 38.1194 31.9676 37.4653 32.1707 37.0236L32.2018 36.9558C32.4392 36.4372 32.5556 36.1429 32.5556 35.8567C32.5556 35.5677 32.3897 35.0851 32.0292 34.5329C31.8198 34.2122 31.5816 33.9245 31.3555 33.6982C30.8868 33.8793 30.4266 34 30.0001 34C29.5735 34 29.1133 33.8793 28.6446 33.6982C28.4185 33.9245 28.1802 34.2122 27.9708 34.5329C27.6103 35.0851 27.4444 35.5677 27.4444 35.8567C27.4444 36.1509 27.5603 36.4393 27.7963 36.9491L27.8257 37.0123C28.0307 37.4532 28.3333 38.1038 28.3333 38.8568C28.3333 40.6265 26.8561 41.9996 25.1111 41.9996C23.3185 41.9996 22.278 40.6955 21.7366 39.4772C21.1894 38.2456 21 36.8135 21 35.8567C21 33.2523 22.1795 30.9234 24.0329 29.3328ZM34.8287 21.9845C36.1376 21.7567 37.5173 21.4385 39.0276 21.0291L39.1619 20.9925L39.265 20.9643C39.7976 20.8179 40.1106 20.2675 39.9642 19.735C39.8179 19.2025 39.2675 18.8894 38.735 19.0358C35.2703 19.988 32.6237 20.4255 30.004 20.4144C27.3811 20.4033 24.7304 19.9425 21.2532 19.0326C20.7189 18.8928 20.1724 19.2126 20.0326 19.7469C19.8928 20.2812 20.2126 20.8276 20.7468 20.9674C22.3443 21.3855 23.7962 21.7177 25.1721 21.958C25.6508 22.0416 26.0001 22.4571 26.0001 22.9431V23H34.0001V22.9697C34.0001 22.4835 34.3497 22.0678 34.8287 21.9845ZM34.0001 25H26.0001V27H34.0001V25ZM23 35.8567C23 34.0909 23.7109 32.4774 24.8851 31.2728C25.3128 31.8511 25.9207 32.4137 26.7507 32.8172C26.5885 33.0167 26.4354 33.2262 26.2961 33.4396C25.8547 34.1157 25.4444 34.9939 25.4444 35.8567C25.4444 36.6323 25.7511 37.293 25.9598 37.7427L25.9815 37.7895C26.2219 38.3087 26.3333 38.5828 26.3333 38.8568C26.3333 39.454 25.8207 39.9996 25.1111 39.9996C24.4901 39.9996 23.9751 39.5896 23.5643 38.6651C23.1594 37.7538 23 36.6144 23 35.8567ZM33.7039 33.4396C33.5646 33.2262 33.4115 33.0167 33.2493 32.8172C34.0794 32.4137 34.6872 31.8511 35.115 31.2729C36.2891 32.4775 37 34.0909 37 35.8567C37 36.5083 36.8296 37.6528 36.4098 38.6C35.9729 39.586 35.4479 39.9996 34.8889 39.9996C34.1793 39.9996 33.6667 39.454 33.6667 38.8568C33.6667 38.5951 33.7778 38.3182 34.0204 37.7882L34.0423 37.7404C34.2498 37.2881 34.5556 36.6216 34.5556 35.8567C34.5556 34.9939 34.1453 34.1157 33.7039 33.4396ZM27.7272 30.9796C26.8104 30.4984 26.2753 29.694 26 29H34C33.7247 29.694 33.1896 30.4984 32.2728 30.9796C32.103 31.0688 31.9119 31.1806 31.7403 31.2811L31.6393 31.3401C31.4284 31.463 31.2243 31.5792 31.0179 31.6823C30.5874 31.8973 30.2517 32 30 32C29.7483 32 29.4126 31.8973 28.9821 31.6823C28.7757 31.5792 28.5716 31.463 28.3607 31.3401L28.2597 31.2811C28.0881 31.1806 27.897 31.0688 27.7272 30.9796Z" fill="black"/>
</svg>

<svg
  xmlns="http://www.w3.org/2000/svg"
  width="24"
  height="24"
  viewBox="0 0 24 24"
  fill="none"
  stroke="currentColor"
  stroke-width="2"
  stroke-linecap="round"
  stroke-linejoin="round"
>
  <path
    fill-rule="evenodd"
    d="M12 15.9A5.002 5.002 0 0 0 11 6a5 5 0 0 0-1 9.9V18H8a1 1 0 1 0 0 2h2v3a1 1 0 1 0 2 0v-3h2a1 1 0 1 0 0-2h-2zm2-4.9a3 3 0 1 1-6 0 3 3 0 0 1 6 0"
    clip-rule="evenodd"
  />
  <path
    fill-rule="evenodd"
    d="M30 17a5.5 5.5 0 1 0 0-11 5.5 5.5 0 0 0 0 11m0-2a3.5 3.5 0 1 0 0-7 3.5 3.5 0 0 0 0 7"
    clip-rule="evenodd"
  />
  <path
    fill-rule="evenodd"
    d="M24.033 29.333A2.5 2.5 0 0 1 24 28.94v-5.165a61 61 0 0 1-3.76-.873 3 3 0 0 1 1.52-5.804c3.402.89 5.869 1.306 8.252 1.316 2.374.01 4.829-.382 8.193-1.307a3 3 0 0 1 1.59 5.786c-.897.246-1.757.464-2.589.652q-.612.14-1.206.256V29a3 3 0 0 1-.033.333c1.854 1.59 3.033 3.92 3.033 6.524 0 .887-.212 2.314-.762 3.553-.532 1.201-1.562 2.59-3.35 2.59-1.744 0-3.221-1.373-3.221-3.143 0-.738.3-1.392.504-1.833l.03-.068c.238-.519.355-.813.355-1.1s-.166-.77-.527-1.323a5.3 5.3 0 0 0-.674-.835c-.468.181-.928.302-1.355.302s-.887-.12-1.355-.302a5.3 5.3 0 0 0-.674.835c-.36.552-.527 1.035-.527 1.324 0 .294.116.582.352 1.092l.03.063c.205.441.507 1.092.507 1.845 0 1.77-1.477 3.143-3.222 3.143-1.793 0-2.833-1.304-3.374-2.523-.548-1.231-.737-2.663-.737-3.62 0-2.605 1.18-4.934 3.033-6.524m10.796-7.348a47 47 0 0 0 4.199-.956l.134-.037.103-.028a1 1 0 0 0-.53-1.928c-3.465.952-6.111 1.39-8.731 1.378-2.623-.01-5.274-.472-8.75-1.381a1 1 0 0 0-.507 1.934c1.597.419 3.05.75 4.425.991a1 1 0 0 1 .828.985V23h8v-.03a1 1 0 0 1 .829-.985M34 25h-8v2h8zM23 35.857c0-1.766.71-3.38 1.885-4.584a5.05 5.05 0 0 0 1.866 1.544q-.245.302-.455.623c-.441.676-.852 1.554-.852 2.417 0 .775.307 1.436.516 1.886l.021.046c.24.52.352.794.352 1.068 0 .597-.512 1.143-1.222 1.143-.62 0-1.136-.41-1.547-1.335-.405-.911-.564-2.05-.564-2.808m10.704-2.417a7 7 0 0 0-.455-.623 5.05 5.05 0 0 0 1.866-1.544C36.289 32.477 37 34.09 37 35.857c0 .651-.17 1.796-.59 2.743-.437.986-.962 1.4-1.521 1.4-.71 0-1.222-.546-1.222-1.143 0-.262.11-.539.353-1.069l.022-.048c.208-.452.514-1.118.514-1.883 0-.863-.41-1.741-.852-2.417m-5.977-2.46C26.81 30.498 26.275 29.694 26 29h8c-.275.694-.81 1.498-1.727 1.98-.17.089-.361.2-.533.301l-.1.06c-.212.122-.416.238-.622.341-.43.215-.766.318-1.018.318s-.587-.103-1.018-.318c-.206-.103-.41-.219-.621-.342l-.101-.059c-.172-.1-.363-.212-.533-.301"
    clip-rule="evenodd"
  />
</svg>
